static/img/logo.svg

<svg fill="none" height="256" viewBox="0 0 256 256" width="256" xmlns="http://www.w3.org/2000/svg" xmlns:xlink="http://www.w3.org/1999/xlink"><clipPath id="a"><path d="m28.9087 29.6055h198.182v196.789h-198.182z"/></clipPath><rect fill="#63f" height="256" rx="30" width="256"/><g clip-path="url(#a)" fill="#fff"><path d="m33.6758 109.436c-9.5373-32.0449-4.7738-62.6985 35.729-74.2997 10.2716-2.9421 25.9284-5.0677 36.5562-5.2339 38.798-.6079 119.138-.1264 120.973.0186 1.009.0811-2.873 15.4705-9.678 25.6471-11.129 16.6423-26.981 24.454-47.009 25.4702-24.663 1.2516-49.395 1.4844-74.0963 1.4964-24.4574.0119-45.4418 7.3767-61.5615 26.5873-.178.213-.6017.218-.9134.314z"/><path d="m155.673 101.908-65.4267-.12c-33.9255.296-61.3376 28.075-61.3376 62.303 0 34.229 27.4121 62.007 61.3376 62.304v-80.397h65.4267z"/></g></svg>

<svg width="256" height="256" viewBox="0 0 256 256" fill="none" xmlns="http://www.w3.org/2000/svg">
<rect width="256" height="256" rx="30" fill="#6633FF"/>
<g clip-path="url(#clip0)">
<path d="M33.6758 109.436C24.1385 77.3911 28.902 46.7375 69.4048 35.1363C79.6764 32.1942 95.3332 30.0686 105.961 29.9024C144.759 29.2945 225.099 29.776 226.934 29.921C227.943 30.0021 224.061 45.3915 217.256 55.5681C206.127 72.2104 190.275 80.0221 170.247 81.0383C145.584 82.2899 120.852 82.5227 96.1507 82.5347C71.6933 82.5466 50.7089 89.9114 34.5892 109.122C34.4112 109.335 33.9875 109.34 33.6758 109.436Z" fill="white"/>
<path d="M155.673 101.908L90.2463 101.788C56.3208 102.084 28.9087 129.863 28.9087 164.091C28.9087 198.32 56.3208 226.098 90.2463 226.395V145.998H155.673V101.908Z" fill="white"/>
</g>
<defs>
<clipPath id="clip0">
<rect width="198.182" height="196.789" fill="white" transform="translate(28.9087 29.6055)"/>
</clipPath>
</defs>
</svg>
